!!!COM: Palestrina, Giovanni Perluigi da
!!!OPR: Missa O Rex gloriae
!!!OMD: Benedictus
!!!OTL: First Section
**kern	**kern	**kern
*Ibass	*Itenor	*Icalto
!Bassus	!Tenor	!Altus
*clefF4	*clefGv2	*clefG2
*k[b-]	*k[b-]	*k[b-]
*G:dor	*G:dor	*G:dor
*M4/2	*M4/2	*M4/2
=1	=1	=1
0r	1d	0r
.	2d	.
.	2d	.
=2	=2	=2
0r	2c	0r
.	2B-	.
.	2.A	.
.	4B-	.
=3	=3	=3
1A	4c	0r
.	4d	.
.	4e	.
.	4c	.
2A	2f	.
2A	[2e	.
=4	=4	=4
2G	4e]	0r
.	4d	.
2F	1d	.
1E	.	.
.	2c	.
=5	=5	=5
2D	1.f	1a
4D	.	.
4E	.	.
4F	.	2a
4G	.	.
4A	4e	2a
4B-	4d	.
=6	=6	=6
2c	2e	2g
1d	2d	2f
.	1A	1e
2c	.	.
=7	=7	=7
2.B-	2r	2d
.	2f	4d
4c	.	4e
1d	2f	4f
.	.	4g
.	2f	4a
.	.	4b-
=8	=8	=8
2c	2e	2cc
2B-	2d	1dd
1A	1e	.
.	.	2cc
=9	=9	=9
2r	2g	2.b-
2B-	4G	.
.	4A	4cc
2B-	4B-	1dd
.	4c	.
2B-	4d	.
.	4e	.
=10	=10	=10
2A	2f	2cc
2G	1g	2b-
2.d	.	1a
.	2f#	.
4c	.	.
=11	=11	=11
4B-	1g	2r
4A	.	.
4G	.	2b-
4F	.	.
1G	1d	2b-
.	.	2b-
=12	=12	=12
2F	2r	2a
2E	1g	2g
1D	.	2.dd
.	2f	.
.	.	4cc
=13	=13	=13
0G	2d	4b-
.	.	4a
.	2.e	4g
.	.	4f
.	.	1g
.	4d	.
.	[2d	.
=14	=14	=14
1A	2d]	2f
.	2c	2e
1B-	[1f	1d
=15	=15	=15
2c	2f]	0g
1c	4e	.
.	4d	.
.	4e	.
.	4f	.
2B-	[2g	.
=16	=16	=16
1A	2g]	1a
.	2f#	.
1G	1g	1b-
=17	=17	=17
1A	2r	2cc
.	2c	1cc
1G	2d	.
.	2e	2b-
=18	=18	=18
0r	2f	1a
.	1f	.
.	.	1g
.	2e	.
=19	=19	=19
2r	4d	1a
.	4c	.
2A	1f	.
2B-	.	1g
2c	2e	.
=20	=20	=20
2d	4f	0r
.	4e	.
2.B-	4d	.
.	4c	.
.	4d	.
4A	4c	.
[2G	2B-	.
=21	=21	=21
2G]	2A	2r
2F	2d	2a
2G	2d	2b-
2E	2e	2cc
=22	=22	=22
2D	4f	2dd
.	4e	.
1G	4d	2.b-
.	4c	.
.	2B-	.
.	.	4a
2C	2c	[2g
=23	=23	=23
1D	2A	2g]
.	2A	2f
1r	2G	2g
.	[2c	2e
=24	=24	=24
2r	2c]	2d
2G	4B-	1g
.	4A	.
2G	2B-	.
2A	2A	2c
=25	=25	=25
1.B-	2G	1d
.	2d	.
.	2d	1r
4A	2e	.
4G	.	.
=26	=26	=26
2F	4f	2r
.	4e	.
1G	4d	2g
.	4c	.
.	4B-	2g
.	4G	.
2F	[2d	2a
=27	=27	=27
2.G	4d]	1.b-
.	4c	.
.	4B-	.
4F	4A	.
2E-	1G	.
2E-	.	4a
.	.	4g
=28	=28	=28
0D	2A	2f
.	2B-	1g
.	1A	.
.	.	2f
=29	=29	=29
1G	1B	2.g
.	.	4f
1C	2.c	2e-
.	.	2e-
.	4c	.
=30	=30	=30
0G	0B	0d
*-	*-	*-
!!!CDT: 1525/^1526/-1594/2/2
!!!OCY: Italia
!!!AGN: Mass (Parody)
!!!AST: renaissance, vocal
!!!ASW: Motet 1563 (Palestrina)
!!!PWK: Masses, Book 12
!!!RNB: Cadence finals: D
!!!YOR: Le Opere Complete, v. 29, p. 30
!!!YOO: Rome, Italy: Fratelli Scalera
!!!END: 1992//
!!!EED: John Miller
!!!YEC: Copyright 2000, John Miller
!!!YEN: United States of America
!!!YEM: Rights to all derivative electronic formats reserved.
!!!YEM: Refer to licensing agreement for further details.
!!!YEM: This file must be accompanied by the licensing agreement.
!!!YEM: A copy of the licensing agreement may be found at http://www.music-cog.ohio-state.edu/HumdrumDatabases/Palestrina/license.txt
!!!EMD: converted to Humdrum by Bret Aarden
